Flat-Remix-Blue/mimetypes/scalable/application-x-theme.svg

<svg xmlns="http://www.w3.org/2000/svg" xmlns:xlink="http://www.w3.org/1999/xlink" width="36pt" height="36pt" version="1.1" viewBox="0 0 36 36"> <defs> <clipPath id="clip1"> <path d="M 20 2 L 31 2 L 31 13 L 20 13 Z M 20 2"/> </clipPath> <clipPath id="clip2"> <path d="M 20.515625 2.625 L 30.328125 12.4375 L 22.023438 12.4375 C 21.292969 12.4375 20.515625 11.660156 20.515625 10.929688 Z M 20.515625 2.625"/> </clipPath> <filter id="a" x="-.192" y="-.192" width="1.384" height="1.384" color-interpolation-filters="sRGB"><feGaussianBlur stdDeviation="0.67843748"/></filter> </defs><path d="m7.3477 3.9022c-0.67188 0-1.3047 0.63281-1.3047 1.3047v27.391c0 0.63281 0.67188 1.3047 1.3047 1.3047h20.871c0.63281 0 1.3047-0.67188 1.3047-1.3047v-20.215l-8.4805-8.4805z" opacity=".3"/> <g> <path style="fill:rgb(90.196%,90.196%,90.196%)" d="M 7.347656 3.152344 C 6.675781 3.152344 6.042969 3.785156 6.042969 4.457031 L 6.042969 31.847656 C 6.042969 32.480469 6.714844 33.152344 7.347656 33.152344 L 28.21875 33.152344 C 28.851562 33.152344 29.523438 32.480469 29.523438 31.847656 L 29.523438 11.632812 L 21.042969 3.152344 Z M 7.347656 3.152344"/> <path d="m20.668 3.5272 8.4805 8.4805h-7.1758c-0.63281 0-1.3047-0.67187-1.3047-1.3047z" filter="url(#a)" opacity=".2"/> <path style="fill:rgb(100.000%,100.000%,100.000%)" d="M 21.042969 3.152344 L 29.523438 11.632812 L 22.347656 11.632812 C 21.714844 11.632812 21.042969 10.960938 21.042969 10.328125 Z M 21.042969 3.152344"/> </g> </svg>

<svg width="36pt" height="36pt" version="1.1" viewBox="0 0 36 36" xmlns="http://www.w3.org/2000/svg"><defs><filter id="a" x="-.192" y="-.192" width="1.384" height="1.384" color-interpolation-filters="sRGB"><feGaussianBlur stdDeviation="0.67843748"/></filter></defs><path d="m7.3477 3.9022c-0.67188 0-1.3047 0.63281-1.3047 1.3047v27.391c0 0.63281 0.67188 1.3047 1.3047 1.3047h20.871c0.63281 0 1.3047-0.67188 1.3047-1.3047v-20.215l-8.4805-8.4805z" opacity=".15"/><path d="m7.3477 3.1523c-0.67188 0-1.3047 0.63281-1.3047 1.3047v27.391c0 0.63281 0.67188 1.3047 1.3047 1.3047h20.871c0.63281 0 1.3047-0.67188 1.3047-1.3047v-20.215l-8.4805-8.4805z" fill="#e5e5e5"/><path d="m20.668 3.5272 8.4805 8.4805h-7.1758c-0.63281 0-1.3047-0.67187-1.3047-1.3047z" filter="url(#a)" opacity=".2"/><path d="m21.043 3.1523 8.4805 8.4805h-7.1758c-0.63281 0-1.3047-0.67187-1.3047-1.3047z" fill="#fff"/></svg>
